src/assets/outline/Menu1.svg

<svg width="24" height="24" viewBox="0 0 24 24"  xmlns="http://www.w3.org/2000/svg">
<path d="M17.5401 9.05965C15.7701 9.05965 14.3301 7.61965 14.3301 5.84965C14.3301 4.07965 15.7701 2.63965 17.5401 2.63965C19.3101 2.63965 20.7501 4.07965 20.7501 5.84965C20.7501 7.61965 19.3101 9.05965 17.5401 9.05965ZM17.5401 4.12965C16.6001 4.12965 15.8301 4.89965 15.8301 5.83965C15.8301 6.77965 16.6001 7.54965 17.5401 7.54965C18.4801 7.54965 19.2501 6.77965 19.2501 5.83965C19.2501 4.89965 18.4801 4.12965 17.5401 4.12965Z" />
<path d="M6.46001 9.05965C4.69001 9.05965 3.25 7.61965 3.25 5.84965C3.25 4.07965 4.69001 2.63965 6.46001 2.63965C8.23001 2.63965 9.67 4.07965 9.67 5.84965C9.67 7.61965 8.23001 9.05965 6.46001 9.05965ZM6.46001 4.12965C5.52001 4.12965 4.75 4.89965 4.75 5.83965C4.75 6.77965 5.52001 7.54965 6.46001 7.54965C7.40001 7.54965 8.17 6.77965 8.17 5.83965C8.17 4.89965 7.41001 4.12965 6.46001 4.12965Z" />
<path d="M17.5401 21.3702C15.7701 21.3702 14.3301 19.9302 14.3301 18.1602C14.3301 16.3902 15.7701 14.9502 17.5401 14.9502C19.3101 14.9502 20.7501 16.3902 20.7501 18.1602C20.7501 19.9302 19.3101 21.3702 17.5401 21.3702ZM17.5401 16.4402C16.6001 16.4402 15.8301 17.2102 15.8301 18.1502C15.8301 19.0902 16.6001 19.8602 17.5401 19.8602C18.4801 19.8602 19.2501 19.0902 19.2501 18.1502C19.2501 17.2102 18.4801 16.4402 17.5401 16.4402Z" />
<path d="M6.46001 21.3702C4.69001 21.3702 3.25 19.9302 3.25 18.1602C3.25 16.3902 4.69001 14.9502 6.46001 14.9502C8.23001 14.9502 9.67 16.3902 9.67 18.1602C9.67 19.9302 8.23001 21.3702 6.46001 21.3702ZM6.46001 16.4402C5.52001 16.4402 4.75 17.2102 4.75 18.1502C4.75 19.0902 5.52001 19.8602 6.46001 19.8602C7.40001 19.8602 8.17 19.0902 8.17 18.1502C8.17 17.2102 7.41001 16.4402 6.46001 16.4402Z" />
</svg>

<?xml version="1.0" encoding="UTF-8"?>
<svg width="24" height="24" viewBox="0 0 24 24" xmlns="http://www.w3.org/2000/svg">
 <path d="m17.54 9.0596c-1.77 0-3.21-1.44-3.21-3.21s1.44-3.21 3.21-3.21 3.21 1.44 3.21 3.21-1.44 3.21-3.21 3.21zm0-4.93c-0.94 0-1.71 0.77-1.71 1.71s0.77 1.71 1.71 1.71 1.71-0.77 1.71-1.71-0.77-1.71-1.71-1.71z"/>
 <path d="m6.46 9.0596c-1.77 0-3.21-1.44-3.21-3.21s1.44-3.21 3.21-3.21 3.21 1.44 3.21 3.21-1.44 3.21-3.21 3.21zm0-4.93c-0.94 0-1.71 0.77-1.71 1.71s0.77001 1.71 1.71 1.71 1.71-0.77 1.71-1.71-0.75999-1.71-1.71-1.71z"/>
 <path d="m17.54 21.37c-1.77 0-3.21-1.44-3.21-3.21s1.44-3.21 3.21-3.21 3.21 1.44 3.21 3.21-1.44 3.21-3.21 3.21zm0-4.93c-0.94 0-1.71 0.77-1.71 1.71s0.77 1.71 1.71 1.71 1.71-0.77 1.71-1.71-0.77-1.71-1.71-1.71z"/>
 <path d="m6.46 21.37c-1.77 0-3.21-1.44-3.21-3.21s1.44-3.21 3.21-3.21 3.21 1.44 3.21 3.21-1.44 3.21-3.21 3.21zm0-4.93c-0.94 0-1.71 0.77-1.71 1.71s0.77001 1.71 1.71 1.71 1.71-0.77 1.71-1.71-0.75999-1.71-1.71-1.71z"/>
</svg>
